X:1
T:Boniour, mon cueur
T:Jean de Castro
T:Source : La fleur des chansons à 3---Louvain---P.Phalèse---1574. Editor : André Vierendeels (07/09/18) Notes : Original clefs : G2, C1, C3 Original note values have been halved Editorial accidentals above the staff  
T:Boniour, mon cueur
T:©
T:©
T:©
T:©
T:©
C:Jean de Castro
Z:©
%%score [ 1 2 3 ]
L:1/8
Q:1/4=120
M:2/2
K:C
V:1 treble nm="Soprano 1" snm="S 1"
V:2 treble nm="Soprano 2" snm="S 2"
V:3 treble-8 nm="Tenor" snm="T"
V:1
 z8 | z4 d4- | d4 e4 | f4 d4 | z2 d2 e3 d | cB A2 B4- | B4 z4 | z4 d4- | d4 e4 | f4 d4 | %10
w: |Bon-|* iour,|mon cueur,|bon- iour, ma|dou- ce'a- my- e,|_|bon-|* iour,|mon oeil,|
 z2 d2 e3 d | cB A2 G2 gg | eedc d2 e2 | z2 ff eec>c | d2 e2 z ccB | c2 Gg gf e2 | d4 z ccB | %17
w: bon- iour, ma|dou- ce vi- e, hé, bon-|iour, ma tou- te bel- le,|hé, bon- iour, ma tou- te|bel- le, ma mi- gnar-|di- se, ma mi- gnar- di-|se, ma mi- gnar-|
 c2 G2 z eed | e2 d2 z2 g2- | g2 g2 f3 e | d2 c2 c2 B2 | c2 z g f2 e2 | d2 z c B2 A2 | %23
w: di- se, ma mi- gnar-|di- se, bon-|* iour, mes de-|li- ces, mon a-|mour, mon doux prin-|temps, mon doux prin-|
"^b" G2 B2 c2 B2 | A2 G3 F/E/ F2 | G2 z B c4- | c2 e2 d2 z e | edfe d2 ce | f3 f d4 | z2 e2 c3 c | %30
w: temps, ma dou- ce|fleur nou- * * vel-|le, mon doux|_ plai- sir, ma|dou- ce co- lom- bel- le, mon|pas- se- reau,|ma gen- te|
 de f2 e2 g2- | g2 e2 z2 c2- | c2 B2 z2 A2 | B2 c4 B2 | A4 G2 g2- | g2 e2 z2 c2- | c2 B2 z2 A2 | %37
w: tour te- rel- le, bon-|* iour, bon-|* iour, ma|dou- ce re-|bel- le, bon-|* iour, bon-|* iour, ma|
 B2 c4 B2 | A4 B4- | B8 |] %40
w: dou- ce re-|bel- le|_|
V:2
 z2 G2 A4 | c6 B2 | z2 B2 c4 | z2 c4 B2 | z2 B2 c3 B | AG ^F2 G4 | z2 G2 A4 | c6 B2 | z2 B2 c4 | %9
w: Bon- iour,|mon cueur,|bon- iour,|mon cueur,|bon- iour, ma|dou- ce'a- my- e,|bon- iour,|mon oeil,|bon- iour,|
 z2 c4 B2 | z2 B2 c3 B | AG ^F2 G2 B>d | ccBA B2 GG | A c2 B cGGG | G2 GC EE D2 | Cccc A2 Gc- | %16
w: mon oeil,|bon- iour, ma|dou- ce vi- e, hé, bon-|iour, ma tou- te bel- le, ma|tou- te bel- le, ma tou- te|bel- le, ma tou- te bel-|le, ma mi- gnar- di- se, ma|
 c B2 A G2 AD | EEED z ccB | AG z B BA B2 | c2 GG A3 c | B2 c2 d2 d2 | e4 z2 c2 | B2 A2 G2 z ^F | %23
w: _ mi- gnar- di- se, ma|mi- gnar- di- se, ma mi- gnar-|di- se, ma mi- gnar- di-|se, bon- iour, mes de-|li- ces, mon a-|mour, mon|doux prin- temps, ma|
"^-natural" G6 F2 | E2 D2 C4 | D2 z G A4- | A2 c2 B2 z c | cB z A2 G A2 | A4 z2 B2 | c3 c AAAA | %30
w: dou- ce|fleur nou- vel-|le, mon doux|_ plai- sir, ma|dou- ce co- lom- bel-|le, mon|pas- se- reau, ma gen- te|
 Bc F2 G4 | c6 G2 | z2 G2 ^F2 F2- | F2 G2 AA G2- | GF/E/ ^F2 G4 | c6 G2 | z2 G2 ^F2 F2- | %37
w: tour- te- rel- le,|bon- iour,|bon iour, ma|_ dou- ce re- bel-|* * * * le,|bon- iour,|bon- iour, ma|
 F2 G2 AA G2- | GF/E/ ^F2 G4- | G8 |] %40
w: _ dou- ce re- bel-|* * * * le.|_|
V:3
 g4 f4 | c4 g4 | z2 G2 c4 | z2 f2 g2 G2 | c2 g2 c3 d | fg d2 G4 | g4 f4 | c4 g4 | z2 G2 c4 | %9
w: Bon- iour,|mon cueur,|bon- iour,|bon- iour, mon|cueur, bon- iour, ma|dou- ce'a- my- e,|bon- iour,|mon oeil,|bon- iour,|
 z2 f2 g2 g2 | c2 G2 c3 d | fg d2 G4 | z4 ggee | dc d2 c4 | z2 c2 cc G2 | c4 z4 | z ggf e2 d2 | %17
w: bon- iour, mon|oeil, bon- iour, ma|dou- ce vi- e,|hé, bon- iour, ma|tou- te bel- le,|ma tou- te bel-|le,|ma mi- gnar- di- se,|
 z ccB c2 g2 | z2 g2 g^f g2 | c2 cc f3 c | g2 e2 f2 g2 |"^#" c4 z4 | z4 z2 d2 | e6 d2 | c2 B2 A4 | %25
w: ma mi- gnar- di- se,|ma mi- gnar- di-|se, bon- iour, mes de-|li- ces, mon a-|mour,|ma|dou- ce|fleur nou- vel-|
 G2 g2 f4- | f2 c2 g2 z c | cGdA _B2 A2 | z2 f2 g3 g | c2 c2 e3 a | gc d2 c4 | z4 c4 | G4 d4- | %33
w: le, mon doux|_ plai- sir, ma|dou- ce co- lom- bel- le,|mon pas- se-|reau, ma gen- te|tour- te- rel- le,|bon-|iour, ma|
 d2 e2 f2 g2 | d4 G4 | z4 c4 | G4 d4- | d2 e2 f2 g2 | d4 G4- | G8 |] %40
w: _ dou- ce re-|bel- le,|bon-|iour, ma|_ dou- ce re-|bel- le.|_|

